X: 21111
Q: "Cheerful"
M: C|
L: 1/8
K: G
gfed ef gB/d/ |
{d}cBAG {F}E3DE |\
|: ef |\
gfed efg>b | agfe f>gaf |
{a}gfga bgab | Te4 {de}d2ga |\
b>age de/f/ gB | {d}cBAG {F}E2DE |\


